img/icons/whatsapp-vermelho.svg

<svg width="20" height="20" viewBox="0 0 20 20" fill="none" xmlns="http://www.w3.org/2000/svg">
<g clip-path="url(#clip0_19_24)">
<path d="M0.0473633 20L1.4532 14.8642C0.585697 13.3608 0.129863 11.6567 0.130697 9.90917C0.133197 4.44583 4.57903 0 10.0415 0C12.6924 0.000833333 15.1807 1.03333 17.0524 2.90667C18.9232 4.78 19.9532 7.27 19.9524 9.91833C19.9499 15.3825 15.504 19.8283 10.0415 19.8283C8.3832 19.8275 6.74903 19.4117 5.30153 18.6217L0.0473633 20ZM5.54486 16.8275C6.94153 17.6567 8.27486 18.1533 10.0382 18.1542C14.5782 18.1542 18.2765 14.4592 18.279 9.91667C18.2807 5.365 14.5999 1.675 10.0449 1.67333C5.50153 1.67333 1.8057 5.36833 1.80403 9.91C1.8032 11.7642 2.34653 13.1525 3.25903 14.605L2.42653 17.645L5.54486 16.8275ZM15.034 12.2742C14.9724 12.1708 14.8074 12.1092 14.559 11.985C14.3115 11.8608 13.094 11.2617 12.8665 11.1792C12.6399 11.0967 12.4749 11.055 12.309 11.3033C12.144 11.5508 11.669 12.1092 11.5249 12.2742C11.3807 12.4392 11.2357 12.46 10.9882 12.3358C10.7407 12.2117 9.94236 11.9508 8.99653 11.1067C8.2607 10.45 7.7632 9.63917 7.61903 9.39083C7.47486 9.14333 7.60403 9.00917 7.72736 8.88583C7.83903 8.775 7.97486 8.59667 8.09903 8.45167C8.22486 8.30833 8.2657 8.205 8.34903 8.03917C8.43153 7.87417 8.3907 7.72917 8.3282 7.605C8.2657 7.48167 7.7707 6.2625 7.56486 5.76667C7.3632 5.28417 7.15903 5.34917 7.00736 5.34167L6.53236 5.33333C6.36736 5.33333 6.09903 5.395 5.87236 5.64333C5.6457 5.89167 5.0057 6.49 5.0057 7.70917C5.0057 8.92833 5.8932 10.1058 6.01653 10.2708C6.1407 10.4358 7.76236 12.9375 10.2465 14.01C10.8374 14.265 11.299 14.4175 11.6582 14.5317C12.2515 14.72 12.7915 14.6933 13.2182 14.63C13.694 14.5592 14.6832 14.0308 14.8899 13.4525C15.0965 12.8733 15.0965 12.3775 15.034 12.2742Z" fill="#A60303"/>
</g>
<defs>
<clipPath id="clip0_19_24">
<rect width="20" height="20" fill="white"/>
</clipPath>
</defs>
</svg>

<svg width="20" height="20" fill="none" xmlns="http://www.w3.org/2000/svg"><g clip-path="url(#a)"><path d="m.047 20 1.406-5.136A9.89 9.89 0 0 1 .131 9.91C.133 4.446 4.579 0 10.04 0c2.651 0 5.14 1.033 7.011 2.907a9.854 9.854 0 0 1 2.9 7.011c-.002 5.465-4.448 9.91-9.91 9.91a9.916 9.916 0 0 1-4.74-1.206L.047 20Zm5.498-3.172c1.397.829 2.73 1.325 4.493 1.326 4.54 0 8.238-3.695 8.241-8.237a8.235 8.235 0 0 0-8.234-8.244c-4.543 0-8.24 3.695-8.241 8.237 0 1.854.543 3.242 1.455 4.695l-.832 3.04 3.118-.817Zm9.489-4.554c-.062-.103-.227-.165-.475-.289-.247-.124-1.465-.723-1.692-.806-.227-.082-.392-.124-.558.124-.165.248-.64.806-.784.971-.144.165-.29.186-.537.062-.247-.124-1.046-.385-1.991-1.23-.736-.656-1.234-1.467-1.378-1.715-.144-.248-.015-.382.108-.505.112-.111.248-.29.372-.434.126-.144.167-.247.25-.413.083-.165.042-.31-.02-.434-.063-.123-.558-1.343-.764-1.838-.202-.483-.406-.418-.558-.425l-.475-.009a.907.907 0 0 0-.66.31c-.226.249-.866.847-.866 2.066 0 1.22.887 2.397 1.01 2.562.125.165 1.746 2.666 4.23 3.739.591.255 1.053.408 1.412.522.594.188 1.133.161 1.56.098.476-.07 1.465-.6 1.672-1.178.207-.579.207-1.075.144-1.178Z" fill="#A60303"/></g><defs><clipPath id="a"><path fill="#fff" d="M0 0h20v20H0z"/></clipPath></defs></svg>
